src/assets/duotone/Car.svg

<svg width="24" height="24" viewBox="0 0 24 24"  xmlns="http://www.w3.org/2000/svg">
<path opacity="0.4" d="M22.1801 13.66C22.0301 12.01 21.5901 10.25 18.3801 10.25H5.62009C2.41009 10.25 1.98009 12.01 1.82009 13.66L1.26009 19.75C1.19009 20.51 1.44009 21.27 1.96009 21.84C2.49009 22.42 3.24009 22.75 4.04009 22.75H5.92009C7.54009 22.75 7.85009 21.82 8.05009 21.21L8.25009 20.61C8.48009 19.92 8.54009 19.75 9.44009 19.75H14.5601C15.4601 19.75 15.4901 19.85 15.7501 20.61L15.9501 21.21C16.1501 21.82 16.4601 22.75 18.0801 22.75H19.9601C20.7501 22.75 21.5101 22.42 22.0401 21.84C22.5601 21.27 22.8101 20.51 22.7401 19.75L22.1801 13.66Z" />
<path d="M21 7.25008H20C19.99 7.25008 19.99 7.25008 19.98 7.25008L19.6 5.44008C19.24 3.69008 18.49 2.08008 15.51 2.08008H12.75H11.25H8.49C5.51 2.08008 4.76 3.69008 4.4 5.44008L4.02 7.25008C4.01 7.25008 4.01 7.25008 4 7.25008H3C2.59 7.25008 2.25 7.59008 2.25 8.00008C2.25 8.41008 2.59 8.75008 3 8.75008H3.71L3.29 10.7501C3.83 10.4401 4.58 10.2501 5.62 10.2501H18.38C19.42 10.2501 20.17 10.4401 20.71 10.7501L20.29 8.75008H21C21.41 8.75008 21.75 8.41008 21.75 8.00008C21.75 7.59008 21.41 7.25008 21 7.25008Z" />
<path d="M9 15.75H6C5.59 15.75 5.25 15.41 5.25 15C5.25 14.59 5.59 14.25 6 14.25H9C9.41 14.25 9.75 14.59 9.75 15C9.75 15.41 9.41 15.75 9 15.75Z" />
<path d="M18 15.75H15C14.59 15.75 14.25 15.41 14.25 15C14.25 14.59 14.59 14.25 15 14.25H18C18.41 14.25 18.75 14.59 18.75 15C18.75 15.41 18.41 15.75 18 15.75Z" />
</svg>

<?xml version="1.0" encoding="UTF-8"?>
<svg width="24" height="24" viewBox="0 0 24 24" xmlns="http://www.w3.org/2000/svg">
 <path d="m22.18 13.66c-0.15-1.65-0.59-3.41-3.8-3.41h-12.76c-3.21 0-3.64 1.76-3.8 3.41l-0.56 6.09c-0.07 0.76 0.18 1.52 0.7 2.09 0.53 0.58 1.28 0.91 2.08 0.91h1.88c1.62 0 1.93-0.93 2.13-1.54l0.2-0.6c0.23-0.69 0.29-0.86 1.19-0.86h5.12c0.9 0 0.93 0.1 1.19 0.86l0.2 0.6c0.2 0.61 0.51 1.54 2.13 1.54h1.88c0.79 0 1.55-0.33 2.08-0.91 0.52-0.57 0.77-1.33 0.7-2.09l-0.56-6.09z" opacity=".4"/>
 <path d="m21 7.2501h-1-0.02l-0.38-1.81c-0.36-1.75-1.11-3.36-4.09-3.36h-7.02c-2.98 0-3.73 1.61-4.09 3.36l-0.38 1.81h-0.02-1c-0.41 0-0.75 0.34-0.75 0.75s0.34 0.75 0.75 0.75h0.71l-0.42 2c0.54-0.31 1.29-0.5 2.33-0.5h12.76c1.04 0 1.79 0.19 2.33 0.5l-0.42-2h0.71c0.41 0 0.75-0.34 0.75-0.75s-0.34-0.75-0.75-0.75z"/>
 <path d="m9 15.75h-3c-0.41 0-0.75-0.34-0.75-0.75s0.34-0.75 0.75-0.75h3c0.41 0 0.75 0.34 0.75 0.75s-0.34 0.75-0.75 0.75z"/>
 <path d="m18 15.75h-3c-0.41 0-0.75-0.34-0.75-0.75s0.34-0.75 0.75-0.75h3c0.41 0 0.75 0.34 0.75 0.75s-0.34 0.75-0.75 0.75z"/>
</svg>
